X: 34365
T: Reunion, The
R: reel
M: 4/4
K: Amajor
|:ecBc ABAF|EEEF A3 B|d2 cd feef|efec B3 f|
ecBc ABAF|EEEF A3 B|d2 cd feef|ecBc A3 f:|
|:e2 ce AAAc|ecce AA c2|f2 df BBBd|fddf Bcfd|
e2 ce AAAc|ecce AA c2|d2 cd feef|1 ecBc A3 f:|2 ecBc A3 z||

